!!!OTL: 32. Wilhelm Tell.
!!!ARE: Europa, Mitteleuropa, Deutschland
!!!SCT: E0032
!!!TXL: @@DE
!!!YEM: Copyright 1995, estate of Helmut Schaffrath.
**kern	**text
*ICvox	*
*M4/4	*
*met(c)	*
*k[]	*
*C:	*
=1	=1
2r	.
4r	.
!LO:TX:a:t=Mel. 1607: Wilhelmus v. Naſſauen.	!
{4g	Wil-
=2	=2
4cc	-helm
4cc	bin
4dd	ich
4dd	der
=3	=3
4ee	Tel-
8dd}	-le,
{8ee	von
4ff	Hel-
4ee	-des
=4	=4
4dd	Mut
4dd	und
!LO:N:vis=2	!
4cc}	Blut.
{4g	Mit
=5	=5
4cc	mei-
4cc	-nem
4dd	Gſchoß
4dd	und
=6	=6
4ee	Pfei-
8dd}	-le
{8ee	hab
4ff	ich
4ee	die
=7	=7
4dd	Frei-
4dd	-heit
2cc	gut
=8	=8
4r}	.
{4gg	dem
4gg	Va-
4gg	-ter-
=9	=9
4gg	-land
4ff	er-
4ee	-wor-
8dd}	-ben,
{8ee	ver-
=10	=10
4ff	-trie-
4ee	-ben
4dd	Ty-
4cc	-ran-
=11	=11
2dd	-nei;
4r}	.
{4g	ein
=12	=12
4cc	fe-
4ee	-ſten
4dd	Bund
4cc	ge-
=13	=13
4b/	-ſchwo-
8a}	-ren
{8g	han
4a	un-
4cc	-ſer
=14	=14
4cc	Gſel-
4b	-len
2cc;}	drei.
==	==
!!!AGN: Helden - Sage, erzaehlendes Volks - Lied, Ballade ?
!!!ONB: ESAC (Essen Associative Code) Database: ERK1
!!!AMT: simple quadruple
!!!AIN: vox
!!!EED: Helmut Schaffrath
!!!EEV: 1.0
!!!GTL: Heldensage
!!!URL-scan: https://rosdok.uni-rostock.de/mcrviewer/recordIdentifier/rosdok_ppn745146120/iview2/phys_0165.iview2?x=-4.404412318551749&y=653.3932530184975&scale=0.6456904138606623&rotation=0&layout=singlePageLayout&logicalDiv=log_0009
!!!ENC: Anna Maria Matuszewska
!!!EEV: 2024/11/25
*-	*-
